X:004
T:Austin Tierney's  (reel) 
T:Cherry Tree, Farewell to Erin
B:CRE 3.111 (RÃÂÃÂÃÂÃÂ­l Aibhistin UÃÂÃÂÃÂÃÂ­ Thiarnaigh)
F:file ID: cre.3/004aus_tier
L:1/8
Q:180
M:4/4
R:reel
K:D
D2FD AD (3FED|Addc defd|d3A BAFA|BdAF EB,B,2|
"5"D2FD AD (3FED|AddA Bcde|fd (3gfe dBcA|BdAG EDEF|
"9"D2DB AD (3FED|Addc de f2|D2 (3FED ADFA|BdAG E3F|
"13"D2 (3FED ADFD|AddA Bcde|fd (3ddc dBAd|BdAF EDFA||
"17"d3B AFF2|DF (3AAF AFFA|d3B (3ABA FA|BdAF EDCA|
"21"dcdA BcdB|BAFB ABde|fd (3gfe dBAF|GFED CEA2|
"25"d3B AFF2|DFAF AFFA|d3B (3ABA FA|BdAF EDFE|
"29"dcdc BcdA|BAFB A2ag|faec dBAd|BdAF E4||

%%%

